icon/pk/paper-money.svg

<svg viewBox="0 0 48 48" fill="none" xmlns="http://www.w3.org/2000/svg" height="1em" width="1em">
  <path d="M39 7H9C6.23858 7 4 9.23858 4 12V36C4 38.7614 6.23858 41 9 41H39C41.7614 41 44 38.7614 44 36V12C44 9.23858 41.7614 7 39 7Z" fill="#2F88FF" stroke="black" stroke-width="4" stroke-linejoin="round"/>
  <path d="M18 15L24 21L30 15" stroke="white" stroke-width="4" stroke-linecap="round" stroke-linejoin="round"/>
  <path d="M17 23H31" stroke="white" stroke-width="4" stroke-linecap="round" stroke-linejoin="round"/>
  <path d="M17 29H31" stroke="white" stroke-width="4" stroke-linecap="round" stroke-linejoin="round"/>
  <path d="M24 23V34" stroke="white" stroke-width="4" stroke-linecap="round" stroke-linejoin="round"/>
</svg>

<svg width="48" height="48" fill="none" xmlns="http://www.w3.org/2000/svg"><path d="M39 7H9a5 5 0 0 0-5 5v24a5 5 0 0 0 5 5h30a5 5 0 0 0 5-5V12a5 5 0 0 0-5-5Z" fill="#2F88FF" stroke="#000" stroke-width="4" stroke-linejoin="round"/><path d="m18 15 6 6 6-6M17 23h14M17 29h14M24 23v11" stroke="#fff" stroke-width="4" stroke-linecap="round" stroke-linejoin="round"/></svg>
